packages/tokens/icons/cartAdd/size16Px.svg

<svg viewBox="0 0 16 16" fill="none" xmlns="http://www.w3.org/2000/svg" width="1em" height="1em"><circle cx="5.5" cy="14.5" r="0.5" stroke="currentColor"/><circle cx="11.5" cy="14.5" r="0.5" stroke="currentColor"/><path d="M2 3C1.72386 3 1.5 3.22386 1.5 3.5C1.5 3.77614 1.72386 4 2 4V3ZM4 3.5L4.49497 3.42929C4.45979 3.18296 4.24883 3 4 3V3.5ZM5 10.5V11H5L5 10.5ZM4.5 4.99997C4.22386 4.99997 4 5.22383 4 5.49997C4 5.77611 4.22386 5.99997 4.5 5.99997V4.99997ZM13.7608 6.69609L13.2705 6.59803L13.7608 6.69609ZM13.1608 9.69609L13.6511 9.79415L13.1608 9.69609ZM12.1802 10.5V9.99997H12.1802L12.1802 10.5ZM12.3571 13C12.6333 13 12.8571 12.7761 12.8571 12.5C12.8571 12.2238 12.6333 12 12.3571 12V13ZM2 4H4V3L2 3V4ZM3.50503 3.57071L4.50503 10.5707L5.49497 10.4293L4.49497 3.42929L3.50503 3.57071ZM4.5 5.99997L12.7802 5.99997V4.99997L4.5 4.99997V5.99997ZM13.2705 6.59803L12.6705 9.59803L13.6511 9.79415L14.2511 6.79415L13.2705 6.59803ZM12.1802 9.99997L5 10L5 11L12.1802 11L12.1802 9.99997ZM5 13L12.3571 13V12L5 12V13ZM3.5 11.5C3.5 12.3284 4.17157 13 5 13V12C4.72386 12 4.5 11.7761 4.5 11.5H3.5ZM5 10C4.17159 10 3.5 10.6715 3.5 11.5H4.5C4.5 11.2238 4.72384 11 5 11L5 10ZM12.6705 9.59803C12.6237 9.83174 12.4185 9.99997 12.1802 9.99997V11C12.8952 11 13.5108 10.4953 13.6511 9.79415L12.6705 9.59803ZM12.7802 5.99997C13.0957 5.99997 13.3324 6.28863 13.2705 6.59803L14.2511 6.79415C14.4367 5.86596 13.7268 4.99997 12.7802 4.99997V5.99997Z" fill="currentColor"/><path d="M7.5 2.5H9.5M8.5 1.5V3.5" stroke="currentColor" stroke-linecap="round"/></svg>

<svg xmlns="http://www.w3.org/2000/svg" fill="none" viewBox="0 0 16 16" width="1em" height="1em"><circle cx="5.5" cy="14.5" r=".5" stroke="currentColor"/><circle cx="11.5" cy="14.5" r=".5" stroke="currentColor"/><path fill="currentColor" d="M2 3a.5.5 0 0 0 0 1V3Zm2 .5.495-.07A.5.5 0 0 0 4 3v.5Zm1 7v.5-.5ZM4.5 5a.5.5 0 0 0 0 1V5Zm9.26 1.696-.49-.098.49.098Zm-.6 3 .491.098-.49-.098Zm-.98.804V10v.5Zm.177 2.5a.5.5 0 1 0 0-1v1ZM2 4h2V3H2v1Zm1.505-.43 1 7 .99-.14-1-7-.99.14ZM4.5 6h8.28V5H4.5v1Zm8.77.598-.6 3 .981.196.6-3-.98-.196ZM12.18 10H5v1h7.18v-1ZM5 13h7.357v-1H5v1Zm-1.5-1.5A1.5 1.5 0 0 0 5 13v-1a.5.5 0 0 1-.5-.5h-1ZM5 10a1.5 1.5 0 0 0-1.5 1.5h1A.5.5 0 0 1 5 11v-1Zm7.67-.402a.5.5 0 0 1-.49.402v1a1.5 1.5 0 0 0 1.471-1.206l-.98-.196ZM12.78 6a.5.5 0 0 1 .49.598l.981.196A1.5 1.5 0 0 0 12.781 5v1Z"/><path stroke="currentColor" stroke-linecap="round" d="M7.5 2.5h2m-1-1v2"/></svg>
